X:0695
T:Miss C. Ramsay's Fancy.
M:2/4
L:1/8
Q:1/4=132
P:ABA % Aird uses a da capo
I: :| || DC
N:Aird prints the second part using explicit accidentals on the Gs
Z:Jack Campin * www.campin.me.uk * 2009
K:D
P:A
d|dAAf|fddf |gedc |dAAd|dAAf|fddf |gedc |Hd2z:|
P:B
K:A
a|aggb|baac'|d'bag|aeea|aggb|baac'|d'bag| a2z||
<end>
<start>
